src/dsmComponents/Icons/swap-horizontal-24px.svg

<?xml version="1.0" encoding="UTF-8"?>
<svg width="24px" height="24px" viewBox="0 0 24 24" version="1.1" xmlns="http://www.w3.org/2000/svg" xmlns:xlink="http://www.w3.org/1999/xlink">
    <!-- Generator: Sketch 59.1 (86144) - https://sketch.com -->
    <title>swap-horizontal-24px</title>
    <desc>Created with Sketch.</desc>
    <defs>
        <path d="M16.5,12 L24,18 L16.5,24 L16.5,19.5 L4.5,19.5 C3.672,19.5 3,18.828 3,18 L3,18 L3.00687075,17.8556068 C3.07959862,17.0952664 3.72070588,16.5 4.5,16.5 L4.5,16.5 L16.5,16.5 L16.5,12 Z M7.5,0 L7.5,4.5 L19.5,4.5 C20.328,4.5 21,5.172 21,6 C21,6.828 20.328,7.5 19.5,7.5 L19.5,7.5 L7.5,7.5 L7.5,12 L0,6 L7.5,0 Z" id="path-1"></path>
    </defs>
    <g id="Final" stroke="none" stroke-width="1" fill="none" fill-rule="evenodd">
        <g id="All-Nucleo-Icons" transform="translate(-608.000000, -6424.000000)">
            <g id="Solo/Nucleo/24px/swap-horizontal" transform="translate(608.000000, 6424.000000)">
                <g id="swap-horizontal">
                    <g id="Colour/Default-Colour">
                        <mask id="mask-2" fill="white">
                            <use xlink:href="#path-1"></use>
                        </mask>
                        <g id="Mask" fill-rule="nonzero"></g>
                        <g id="colour/neutral/chia" mask="url(#mask-2)" fill="#737373">
                            <g transform="translate(-20.000000, -20.000000)" id="Colour">
                                <rect x="0" y="0" width="64" height="64"></rect>
                            </g>
                        </g>
                    </g>
                </g>
            </g>
        </g>
    </g>
</svg>

<svg width="24" height="24" xmlns="http://www.w3.org/2000/svg" xmlns:xlink="http://www.w3.org/1999/xlink"><defs><path d="M16.5 12l7.5 6-7.5 6v-4.5h-12A1.5 1.5 0 013 18l.007-.144A1.5 1.5 0 014.5 16.5h12V12zm-9-12v4.5h12a1.5 1.5 0 010 3h-12V12L0 6l7.5-6z" id="swap-horizontal-24px_svg__a"/></defs><use fill="#737373" xlink:href="#swap-horizontal-24px_svg__a" fill-rule="evenodd"/></svg>
